public/sun.svg

<svg width="26" height="26" viewBox="0 0 26 26" fill="none" xmlns="http://www.w3.org/2000/svg">
<path fill-rule="evenodd" clip-rule="evenodd" d="M12 1C12 0.447715 12.4477 0 13 0C13.5523 0 14 0.447715 14 1V4C14 4.55228 13.5523 5 13 5C12.4477 5 12 4.55228 12 4V1ZM18 13C18 15.7614 15.7614 18 13 18C10.2386 18 8 15.7614 8 13C8 10.2386 10.2386 8 13 8C15.7614 8 18 10.2386 18 13ZM13 21C12.4477 21 12 21.4477 12 22V25C12 25.5523 12.4477 26 13 26C13.5523 26 14 25.5523 14 25V22C14 21.4477 13.5523 21 13 21ZM25 12C25.5523 12 26 12.4477 26 13C26 13.5523 25.5523 14 25 14H22C21.4477 14 21 13.5523 21 13C21 12.4477 21.4477 12 22 12H25ZM5 13C5 12.4477 4.55228 12 4 12H1C0.447715 12 0 12.4477 0 13C0 13.5523 0.447715 14 1 14H4C4.55228 14 5 13.5523 5 13ZM20.7782 3.80761C21.1687 3.41709 21.8019 3.41709 22.1924 3.80761C22.5829 4.19814 22.5829 4.8313 22.1924 5.22183L20.0711 7.34315C19.6805 7.73367 19.0474 7.73367 18.6569 7.34315C18.2663 6.95262 18.2663 6.31946 18.6569 5.92893L20.7782 3.80761ZM7.34315 18.6569C6.95262 18.2663 6.31946 18.2663 5.92893 18.6569L3.80761 20.7782C3.41709 21.1687 3.41709 21.8019 3.80761 22.1924C4.19814 22.5829 4.8313 22.5829 5.22183 22.1924L7.34315 20.0711C7.73367 19.6805 7.73367 19.0474 7.34315 18.6569ZM22.1924 20.7782C22.5829 21.1687 22.5829 21.8019 22.1924 22.1924C21.8019 22.5829 21.1687 22.5829 20.7782 22.1924L18.6569 20.0711C18.2663 19.6805 18.2663 19.0474 18.6569 18.6569C19.0474 18.2663 19.6805 18.2663 20.0711 18.6569L22.1924 20.7782ZM7.34315 7.34315C7.73367 6.95262 7.73367 6.31946 7.34315 5.92893L5.22183 3.80761C4.8313 3.41709 4.19814 3.41709 3.80761 3.80761C3.41709 4.19814 3.41709 4.8313 3.80761 5.22183L5.92893 7.34315C6.31946 7.73367 6.95262 7.73367 7.34315 7.34315Z" fill="white"/>
</svg>

<svg width="26" height="26" fill="none" xmlns="http://www.w3.org/2000/svg"><path fill-rule="evenodd" clip-rule="evenodd" d="M12 1a1 1 0 1 1 2 0v3a1 1 0 1 1-2 0V1zm6 12a5 5 0 1 1-10 0 5 5 0 0 1 10 0zm-5 8a1 1 0 0 0-1 1v3a1 1 0 1 0 2 0v-3a1 1 0 0 0-1-1zm12-9a1 1 0 1 1 0 2h-3a1 1 0 1 1 0-2h3zM5 13a1 1 0 0 0-1-1H1a1 1 0 1 0 0 2h3a1 1 0 0 0 1-1zm15.778-9.192a1 1 0 1 1 1.414 1.414l-2.12 2.121a1 1 0 1 1-1.415-1.414l2.121-2.121zM7.343 18.657a1 1 0 0 0-1.414 0l-2.121 2.121a1 1 0 1 0 1.414 1.414l2.121-2.12a1 1 0 0 0 0-1.415zm14.85 2.121a1 1 0 0 1-1.415 1.414l-2.121-2.12a1 1 0 1 1 1.414-1.415l2.121 2.121zM7.342 7.343a1 1 0 0 0 0-1.414L5.222 3.808a1 1 0 0 0-1.414 1.414l2.12 2.121a1 1 0 0 0 1.415 0z" fill="#fff"/></svg>
